X:34
T:Bransle de la Montarde
P:AA Bx(number of dancers per set)
C:Thoinot Arbeau, Orchesographie, 1589
N:Ed. Al Cofrin; Matches Pile 48
M:C|
L:1/4
K:D dorian
P:A
"D5"AB cA | dB cA | AA AA | GF ED | AB cA | 
dB cA | GA/G/ FE | "G5"DE/C/ D2 ::\
P:B
"^Repeat once per dancer in each set""G5"de/d/ cB | cA G2 :|

